X: 58
T:Missa Une mousse de Biscaye / Credo
N: Derived from Jos0502c-Missa_Une_mousse_de_Biscaye-Credo.krn
C: Josquin des Prez
%%abc-version 2.0
%%abcx-abcm2ps-target-version 5.9.1 (29 Sep 2008)
%%abc-creator hum2abc beta
%%abcx-conversion-date 2019/02/12 16:15:40
%%abc-edited-by Jesse Rodin
%%abc-edited-by Jesse Rodin; Victoria Chang 2012/02/01
%%abcx-initial-encoding-date 2012/02/01/
%%humdrum-veritas 3206424421
%%humdrum-veritas-data 3293064899
%%linebreak <none>
%%barnumbers 0
L: 1/4
M: 2/1
Q: 1/2=120
%%staves [1 2 3 4]
V: 1 clef=treble
V: 2 clef=treble-8
V: 3 clef=treble-8
V: 4 clef=bass
K: F
[V:1] z8 | 
[V:2] F8- | 
[V:3] z8 :
[V:4] B,,6C,2 | 
[V:1] z8 | 
[V:2] F4G4 | 
[V:3] x8 :
[V:4] D,4_E,4 | 
[V:1] z8 | 
[V:2] A8 | 
[V:3] x8 :
[V:4] D,2C,4B,,A,, | 
[V:1] z8 | 
[V:2] B8 | 
[V:3] z8 :
[V:4] G,,2D,4_E,2 | 
[V:1] z8 | 
[V:2] A4G4- | 
[V:3] x8 :
[V:4] C,2D,2B,,2C,2- | 
[V:1] z8 | 
[V:2] G4^F4 | 
[V:3] x8 :
[V:4] C,B,,A,,G,,A,,4 | 
[V:1] z8 | 
[V:2] G8 | 
[V:3] z8 :
[V:4] G,,4z4 | 
[V:1] z8 | 
[V:2] z8 | 
[V:3] x8 :
[V:4] E,4E,2E,2 | 
[V:1] z8 | 
[V:2] A4A4- | 
[V:3] x8 | 
[V:4] F,6E,D, | 
[V:1] z8 | 
[V:2] A4A4 | 
[V:3] z8 :
[V:4] C,4D,4 | 
[V:1] z8 | 
[V:2] B8 | 
[V:3] x8 :
[V:4] G,,4z2G,2- | 
[V:1] z8 | 
[V:2] A4G4 | 
[V:3] x8 :
[V:4] G,2F,2E,2C,2- | 
[V:1] z8 | 
[V:2] A6GF | 
[V:3] z8 :
[V:4] C,2D,3C,B,,A,, | 
[V:1] z8 | 
[V:2] B4A2G2- | 
[V:3] x8 :
[V:4] G,,A,,B,,C,D,2B,,2 | 
[V:1] z8 | 
[V:2] G2F4E2 | 
[V:3] x8 :
[V:4] C,2A,,2G,,4 | 
[V:1] A8- | 
[V:2] F2f4ed | 
[V:3] z8 :
[V:4] F,,8 | 
[V:1] A4A4 | 
[V:2] c2d4c2 | 
[V:3] x8 :
[V:4] F,4F,4 | 
[V:1] B8- | 
[V:2] d8 | 
[V:3] x8 | 
[V:4] D,4G,,2G,,2 | 
[V:1] B4B4 | 
[V:2] d4e4 | 
[V:3] z8 :
[V:4] G,4G,4 | 
[V:1] A8 | 
[V:2] c2d4cB | 
[V:3] x8 :
[V:4] F,8 | 
[V:1] F4G4 | 
[V:2] d2B4c2 | 
[V:3] x8 :
[V:4] B,,4_E,4 | 
[V:1] A8 | 
[V:2] A2F3GA2 | 
[V:3] z8 :
[V:4] F,2D,3E,F,2 | 
[V:1] D6E2 | 
[V:2] B2d4cB | 
[V:3] x8 :
[V:4] G,4G,4 | 
[V:1] F4F4 | 
[V:2] A2B2A2d2- | 
[V:3] x8 :
[V:4] D,8 | 
[V:1] G4G4 | 
[V:2] d2cBc2B2- | 
[V:3] z8 :
[V:4] E,8 | 
[V:1] F8 | 
[V:2] B2AGF3G | 
[V:3] x8 :
[V:4] D,6C,B,, | 
[V:1] z4B4- | 
[V:2] A2F2G4 | 
[V:3] x8 | 
[V:4] A,,4G,,2G,2- | 
[V:1] B4A4 | 
[V:2] z2d2f4 | 
[V:3] z8 :
[V:4] G,F,G,2D,2F,2 | 
[V:1] G4B4 | 
[V:2] e4d4 | 
[V:3] x8 :
[V:4] C,4B,,3C, | 
[V:1] A4G4 | 
[V:2] f4e4 | 
[V:3] x8 :
[V:4] D,4G,,2G,2- | 
[V:1] B4A4 | 
[V:2] d2g4f2- | 
[V:3] z8 :
[V:4] G,2E,2F,2D,2 | 
[V:1] G4F3G | 
[V:2] f2e2f2d2- | 
[V:3] x8 :
[V:4] C,4D,3E, | 
[V:1] A2B4A2 | 
[V:2] d2cBc4 | 
[V:3] x8 :
[V:4] F,2G,2F,4 | 
[V:1] B6AG | 
[V:2] B2d4cB | 
[V:3] z8 :
[V:4] G,2G,,3A,,B,,C, | 
[V:1] F2G4^F2 | 
[V:2] A2G2A4 | 
[V:3] x8 :
[V:4] D,2E,2D,4 | 
[V:1] G8 | 
[V:2] G4z4 | 
[V:3] x8 | 
[V:4] z2G,3F,E,D, | 
[V:1] z8 | 
[V:2] c4B2B2 | 
[V:3] z8 :
[V:4] C,3B,,A,,G,,G,2- | 
[V:1] c4B2B2 | 
[V:2] A4G4 | 
[V:3] x8 :
[V:4] G,2F,2G,4 | 
[V:1] A4G4 | 
[V:2] z2A2B4 | 
[V:3] x8 :
[V:4] D,4z2G,2 | 
[V:1] A8- | 
[V:2] A2d3ef2- | 
[V:3] z8 :
[V:4] F,6D,2- | 
[V:1] A8 | 
[V:2] f2edc2f2 | 
[V:3] x8 :
[V:4] D,2C,B,,A,,2D,2 | 
[V:1] B8 | 
[V:2] d2e4d2- | 
[V:3] x8 :
[V:4] G,,4G,4 | 
[V:1] A4B4 | 
[V:2] dcBAG2d2 | 
[V:3] z8 :
[V:4] F,4E,2D,2 | 
[V:1] A2B2A2B2- | 
[V:2] c2d2c2d2- | 
[V:3] x8 :
[V:4] F,2B,,2F,2D,2- | 
[V:1] BAA4G2 | 
[V:2] dcA2B4 | 
[V:3] x8 | 
[V:4] D,E,F,2G,4 | 
[V:1] A4z4 | 
[V:2] A4z4 | 
[V:3] F8- :
[V:4] D,4z4 | 
[V:1] A6A2 | 
[V:2] A6A2 | 
[V:3] F8- :
[V:4] D,6D,2 | 
[V:1] A4F4 | 
[V:2] A4B4 | 
[V:3] F8 :
[V:4] D,4D,4 | 
[V:1] G4E4 | 
[V:2] G4A4 | 
[V:3] E8 :
[V:4] C,8 | 
[V:1] F2GAB2A2- | 
[V:2] F2B3cd2- | 
[V:3] D8- :
[V:4] B,,4z4 | 
[V:1] A2G2F2ED | 
[V:2] dcBAB4 | 
[V:3] D8 :
[V:4] F,4F,4 | 
[V:1] E4E4- | 
[V:2] c4c4- | 
[V:3] (C8- :
[V:4] G,6G,2 | 
[V:1] E2E2E4 | 
[V:2] c2c2c4 | 
[V:3] C8- :
[V:4] G,4G,2G,2 | 
[V:1] G4G2G2 | 
[V:2] G4G2G2 | 
[V:3] C8- | 
[V:4] E,4E,4 | 
[V:1] A4G4 | 
[V:2] F4G4 | 
[V:3] C8) :
[V:4] A,,2A,,2E,4 | 
[V:1] E4E2E2 | 
[V:2] A4A2A2 | 
[V:3] C8- :
[V:4] A,,4A,,4 | 
[V:1] E4E4 | 
[V:2] A4A4 | 
[V:3] C8 :
[V:4] A,,4A,,4 | 
[V:1] D4z4 | 
[V:2] F4F4- | 
[V:3] D8- :
[V:4] B,,2B,,2B,,4 | 
[V:1] D4D2F2- | 
[V:2] F2B3cd2- | 
[V:3] D8- :
[V:4] B,,4B,,4 | 
[V:1] FEDCD4 | 
[V:2] dcBAG4 | 
[V:3] D8 :
[V:4] B,,8 | 
[V:1] C4z2c2- | 
[V:2] A2GFE3F | 
[V:3] (E8- :
[V:4] A,,2C,3B,,A,,2- | 
[V:1] c2B2c2B2 | 
[V:2] G4C2z2 | 
[V:3] E8- :
[V:4] A,,2G,,2A,,2G,,2 | 
[V:1] c2d2c4 | 
[V:2] A2G2A4 | 
[V:3] E8- | 
[V:4] A,,2B,,2A,,4 | 
[V:1] B4G2c2- | 
[V:2] B4c2BA | 
[V:3] E8)- :
[V:4] G,,4z4 | 
[V:1] c2BAG4- | 
[V:2] G6A2 | 
[V:3] E8- :
[V:4] z2C,4B,,A,, | 
[V:1] G8 | 
[V:2] B2G2c4 | 
[V:3] E8 :
[V:4] G,,2C,3B,,C,2 | 
[V:1] F6G2 | 
[V:2] z2d4cB | 
[V:3] F8- :
[V:4] D,4z2D,2- | 
[V:1] A8- | 
[V:2] A3Bc2d2- | 
[V:3] F8- :
[V:4] D,2C,B,,A,,F,,F,2- | 
[V:1] A4F4 | 
[V:2] dc=BA=B4 | 
[V:3] F8 :
[V:4] F,E,D,C,D,4 | 
[V:1] G8- | 
[V:2] c2e4dc | 
[V:3] (E8- :
[V:4] C,6B,,A,, | 
[V:1] G8 | 
[V:2] =B2c2=B2e2- | 
[V:3] E8- :
[V:4] G,,2A,,2G,,2C,2- | 
[V:1] z8 | 
[V:2] e2dc=B4 | 
[V:3] E8- | 
[V:4] C,D,E,F,G,4 | 
[V:1] z8 | 
[V:2] c8 | 
[V:3] E8)- :
[V:4] C,4z2C,2- | 
[V:1] G6G2 | 
[V:2] z2e4e2 | 
[V:3] E8- :
[V:4] C,2C,2C,4 | 
[V:1] G4G4 | 
[V:2] e4e4 | 
[V:3] E8 :
[V:4] C,8 | 
[V:1] G8 | 
[V:2] c8 | 
[V:3] E8- :
[V:4] C,8 | 
[V:1] C8 | 
[V:2] e8 | 
[V:3] E8- :
[V:4] A,,8 | 
[V:1] G6G2 | 
[V:2] e6e2 | 
[V:3] E8 :
[V:4] C,6C,2 | 
[V:1] G4G4 | 
[V:2] e4d4 | 
[V:3] z8 :
[V:4] C,4B,,4 | 
[V:1] A4A4 | 
[V:2] e4f4 | 
[V:3] x8 :
[V:4] A,,4A,,4 | 
[V:1] B8 | 
[V:2] g8 | 
[V:3] x8 | 
[V:4] G,,8 | 
[V:1] G4c4- | 
[V:2] e4e4- | 
[V:3] z8 :
[V:4] C,4A,,4- | 
[V:1] c2c2c4 | 
[V:2] e2e2e4 | 
[V:3] x8 :
[V:4] A,,2A,,2A,,4 | 
[V:1] c4B4 | 
[V:2] e4d3e | 
[V:3] x8 :
[V:4] A,,4B,,2D,2- | 
[V:1] A4G2A2- | 
[V:2] f2d2e2c2- | 
[V:3] z8 :
[V:4] D,E,F,2E,2F,2 | 
[V:1] A2GFE2A2- | 
[V:2] c2B2c4 | 
[V:3] x8 :
[V:4] D,4C,2F,2- | 
[V:1] AGF4E2 | 
[V:2] F4G4 | 
[V:3] x8 :
[V:4] F,E,D,2C,4 | 
[V:1] F8 | 
[V:2] F6A2 | 
[V:3] (D8- :
[V:4] z2F,4D,2- | 
[V:1] z8 | 
[V:2] A4A4 | 
[V:3] D8- :
[V:4] D,E,F,3E,D,C, | 
[V:1] z8 | 
[V:2] B2d4cB | 
[V:3] D8- | 
[V:4] B,,2B,4A,G, | 
[V:1] z8 | 
[V:2] A2B4A2 | 
[V:3] D8)- :
[V:4] F,2B,,2F,4 | 
[V:1] z8 | 
[V:2] B4z2B2- | 
[V:3] D8- :
[V:4] B,,4B,,4 | 
[V:1] z8 | 
[V:2] Bcdef2d2- | 
[V:3] D8 :
[V:4] G,,4F,,2B,,2- | 
[V:1] z8 | 
[V:2] d2cBA2B2 | 
[V:3] D8- :
[V:4] B,,C,D,E,F,2B,,2 | 
[V:1] z8 | 
[V:2] A2d3cBA | 
[V:3] D8- :
[V:4] F,2A,3G,F,E, | 
[V:1] z4F4 | 
[V:2] B2c4=B2 | 
[V:3] D8 :
[V:4] F,2G,4F,2 | 
[V:1] E6F2 | 
[V:2] c6d2 | 
[V:3] C8- :
[V:4] G,4z4 | 
[V:1] G2A4G2 | 
[V:2] e2A3Bc2 | 
[V:3] C8- :
[V:4] z8 | 
[V:1] A2c3BAG | 
[V:2] A8- | 
[V:3] C8 | 
[V:4] z8 | 
[V:1] F2G4^F2 | 
[V:2] A4A4 | 
[V:3] D8 :
[V:4] z8 | 
[V:1] G6E2- | 
[V:2] G2E3FG2- | 
[V:3] E8- :
[V:4] C,4C,4 | 
[V:1] EFG3FED | 
[V:2] GFEDC4 | 
[V:3] E8 :
[V:4] C,2C,4C,2 | 
[V:1] C4z2c2- | 
[V:2] z4c4 | 
[V:3] F8- :
[V:4] A,,8- | 
[V:1] c2c2A4 | 
[V:2] c2A3Bc2- | 
[V:3] F8- :
[V:4] A,,4A,,4 | 
[V:1] B2c3BAG | 
[V:2] cBAGF4 | 
[V:3] F8- :
[V:4] z4A,,4- | 
[V:1] F4z2F2- | 
[V:2] z8 | 
[V:3] F8- :
[V:4] A,,2B,,2A,,2D,2- | 
[V:1] F2EDC2D2- | 
[V:2] B4c2B2- | 
[V:3] F8- :
[V:4] D,2C,B,,A,,2B,,2- | 
[V:1] DEFGA4 | 
[V:2] B2AGF2D2 | 
[V:3] F8 | 
[V:4] B,,C,D,3C,B,,A,, | 
[V:1] B6G2- | 
[V:2] d4B2_e2- | 
[V:3] G8- :
[V:4] G,,8 | 
[V:1] GFEDE4 | 
[V:2] edcBc4 | 
[V:3] G8- :
[V:4] C,8 | 
[V:1] D4E4 | 
[V:2] d4G4 | 
[V:3] G8 :
[V:4] G,,4C,4 | 
[V:1] E4E4 | 
[V:2] G2G2c4 | 
[V:3] z8 | 
[V:4] C,4C,4 | 
[V:1] F4G4 | 
[V:2] A4G4 | 
[V:3] [M:2/1]z8 :
[V:4] D,4E,4 | 
[V:1] E4z2A2- | 
[V:2] z2c4c2 | 
[V:3] z8 :
[V:4] C,4z2F,2- | 
[V:1] A2A2A4 | 
[V:2] c4A4 | 
[V:3] z8 | 
[V:4] F,2F,2F,4 | 
[V:1] F4G2G2 | 
[V:2] A2A2B2B2 | 
[V:3] z8 :
[V:4] D,4G,,2G,,2 | 
[V:1] E2E2F4 | 
[V:2] G4A4 | 
[V:3] z8 :
[V:4] C,2C,2A,,4 | 
[V:1] D4z4 | 
[V:2] F4B4- | 
[V:3] z8 | 
[V:4] B,,4G,,4 | 
[V:1] G4G4- | 
[V:2] B2B2B4 | 
[V:3] z8 :
[V:4] G,,6G,,2 | 
[V:1] G2G2G4 | 
[V:2] G6c2 | 
[V:3] z8 :
[V:4] C,4E,4 | 
[V:1] A4B2A2- | 
[V:2] A2d4c2- | 
[V:3] z8 | 
[V:4] D,4G,,2F,2- | 
[V:1] A2G4^F2 | 
[V:2] c2B2A4 | 
[V:3] z8 :
[V:4] F,2G,2D,4 | 
[V:1] G4z4 | 
[V:2] G4z2G2- | 
[V:3] z8 :
[V:4] z4E,4- | 
[V:1] G6G2 | 
[V:2] G2G2G2G2 | 
[V:3] z8 | 
[V:4] E,2E,2C,2C,2 | 
[V:1] G2G2A4 | 
[V:2] c2c2A2d2- | 
[V:3] z8 :
[V:4] C,2C,2F,4 | 
[V:1] F3GA2G2- | 
[V:2] d2cBA2B2- | 
[V:3] z8 :
[V:4] D,3E,F,2E,2- | 
[V:1] G2F4E2 | 
[V:2] BAF2G4 | 
[V:3] z8 | 
[V:4] E,2D,2C,4 | 
[V:1] F4z4 | 
[V:2] F2f3ed2- | 
[V:3] F8- :
[V:4] z4D,4- | 
[V:1] A4G4 | 
[V:2] d2cBc4 | 
[V:3] F4G4 :
[V:4] D,4E,4 | 
[V:1] F4E4 | 
[V:2] d2D2E4 | 
[V:3] A8 | 
[V:4] D,4C,4 | 
[V:1] D4z2D2 | 
[V:2] F2G6 | 
[V:3] B8- :
[V:4] B,,2G,,3A,,B,,C, | 
[V:1] F4G4 | 
[V:2] F2B2G4 | 
[V:3] B8 :
[V:4] D,4_E,4 | 
[V:1] A2F4ED | 
[V:2] c4d4 | 
[V:3] A8 | 
[V:4] A,,4D,4 | 
[V:1] E4D4 | 
[V:2] B6c2 | 
[V:3] G8- :
[V:4] G,,6A,,2 | 
[V:1] z2d4cB | 
[V:2] d2B4AG | 
[V:3] G8 :
[V:4] B,,8 | 
[V:1] c2A3Bc2 | 
[V:2] A4z4 | 
[V:3] F8 | 
[V:4] A,,4A,,4 | 
[V:1] B4z2G2- | 
[V:2] d3cd2e2 | 
[V:3] G8- :
[V:4] G,,2G,3F,E,2- | 
[V:1] G2F2E4 | 
[V:2] c2d2e2c2 | 
[V:3] G8 :
[V:4] E,2D,2C,4 | 
[V:1] D4z2G2- | 
[V:2] d2g4fe | 
[V:3] z8 | 
[V:4] B,,4G,,4 | 
[V:1] GAB4AG | 
[V:2] d4G4 | 
[V:3] z8 :
[V:4] z2G,4F,E, | 
[V:1] F2B2c2d2- | 
[V:2] A2d2c2f2- | 
[V:3] z8 :
[V:4] D,4_E,2D,2 | 
[V:1] d2c4=B2 | 
[V:2] f2e2d4 | 
[V:3] z8 | 
[V:4] B,,2C,2G,4 | 
[V:1] c4z4 | 
[V:2] c8 | 
[V:3] A8- :
[V:4] C,2A,,2B,,2C,2 | 
[V:1] F4E2F2- | 
[V:2] z8 | 
[V:3] A8 :
[V:4] D,4C,2D,2- | 
[V:1] F2EDF2E2 | 
[V:2] z4z2c2 | 
[V:3] A8 | 
[V:4] D,2C,B,,D,2C,2 | 
[V:1] D3EF4 | 
[V:2] d2f3edc | 
[V:3] B8- :
[V:4] B,,3C,D,4 | 
[V:1] G4A2F2 | 
[V:2] B2_e2c2d2 | 
[V:3] B4A4 :
[V:4] _E,4F,2D,2 | 
[V:1] GFEDE4 | 
[V:2] B2c3Bc2 | 
[V:3] G4G4 | 
[V:4] _E,4C,4 | 
[V:1] F4z4 | 
[V:2] A2B4AG | 
[V:3] F8- :
[V:4] z2D,4C,B,, | 
[V:1] A4F4 | 
[V:2] F2c2d4 | 
[V:3] F8 :
[V:4] A,,4B,,4 | 
[V:1] G4E4 | 
[V:2] z4A4 | 
[V:3] E8 | 
[V:4] G,,4C,4 | 
[V:1] D2F4ED | 
[V:2] B4A3B | 
[V:3] F6G2 :
[V:4] B,,2D,4C,B,, | 
[V:1] C2c2B4 | 
[V:2] c4z2G2 | 
[V:3] A4B4 :
[V:4] A,,4G,,2G,2 | 
[V:1] A4G4 | 
[V:2] A2F2G4 | 
[V:3] c8 | 
[V:4] F,4E,4 | 
[V:1] F3GA2B2- | 
[V:2] A4F2G2- | 
[V:3] d8- :
[V:4] D,6B,,2 | 
[V:1] B2AGB2A2- | 
[V:2] G2FEG2F2 | 
[V:3] d8- :
[V:4] G,,4z2D,2 | 
[V:1] A2G4^F2 | 
[V:2] G4A4 | 
[V:3] d8- | 
[V:4] G,,4D,4 | 
[V:1] G8 ||  
[V:2] G8 ||  
[V:3] d8 ||  
[V:4] G,,8 ||  
[V:1]  [K:F] [K:clef=treble][M:2/1]F8 | 
[V:2]  [K:F] [K:clef=treble-8][M:2/1]d8 | 
[V:3]  [K:F] [K:clef=treble-8][M:2/1]A8 | 
[V:4]  [K:F] [K:clef=bass][M:2/1]D,8 | 
[V:1] F4F4 | 
[V:2] d4d4 | 
[V:3] A4A4 | 
[V:4] D,4D,4 | 
[V:1] F4F4 | 
[V:2] d4d4 | 
[V:3] A4A4 | 
[V:4] D,4D,4 | 
[V:1] A4G4 | 
[V:2] A3Bc4 | 
[V:3] F4G4 | 
[V:4] D,4E,4 | 
[V:1] F8 | 
[V:2] d8 | 
[V:3] A8 | 
[V:4] D,8 | 
[V:1] z4F4 | 
[V:2] z4d4 | 
[V:3] z4A4 | 
[V:4] z4D,4 | 
[V:1] G6G2 | 
[V:2] d6d2 | 
[V:3] B6B2 | 
[V:4] G,,6G,,2 | 
[V:1] G4G4 | 
[V:2] d4d4 | 
[V:3] B4B4 | 
[V:4] G,,4G,,4 | 
[V:1] A4B4 | 
[V:2] d2f4e2 | 
[V:3] A4G4 | 
[V:4] D,4G,,4 | 
[V:1] A4G4 | 
[V:2] f2d3cBA | 
[V:3] F4B4 | 
[V:4] D,4_E,4- | 
[V:1] G4F2B2- | 
[V:2] G4A2G2 | 
[V:3] c4d4- | 
[V:4] E,4D,2_E,2- | 
[V:1] B2A4G2 | 
[V:2] g2f2d3e | 
[V:3] d2c2B4 | 
[V:4] E,2F,2G,4 | 
[V:1] A2G4F2 | 
[V:2] f2e4d2- | 
[V:3] A2B4A2- | 
[V:4] D,2G,3F,D,2 | 
[V:1] G4!fermata!F4- | 
[V:2] d2^c2d4 | 
[V:3] A2G2A4 | 
[V:4] E,4F,4 | 
[V:1] F8 | 
[V:2] !fermata!d8 | 
[V:3] !fermata!F8 | 
[V:4] !fermata!D,8 | 
[V:1] z8 | 
[V:2] z8 | 
[V:3] z8 | 
[V:4] F,,4G,,4 | 
[V:1] z8 | 
[V:2] z8 | 
[V:3] F4G4 | 
[V:4] F,,2B,,4C,2 | 
[V:1] z8 | 
[V:2] z8 | 
[V:3] F4B4 | 
[V:4] D,2B,,3C,D,E, | 
[V:1] z8 | 
[V:2] z8 | 
[V:3] A2B4AG | 
[V:4] F,2D,2_E,4 | 
[V:1] z8 | 
[V:2] z8 | 
[V:3] F2B2c2d2- | 
[V:4] D,4_E,2F,2 | 
[V:1] z8 | 
[V:2] z8 | 
[V:3] dcB4A2 | 
[V:4] B,,4C,4 | 
[V:1] z4G4 | 
[V:2] z4d4 | 
[V:3] B4z4 | 
[V:4] B,,8 | 
[V:1] G4F4- | 
[V:2] c4d4 | 
[V:3] z4B4 | 
[V:4] _E,4D,4- | 
[V:1] F2F2G4 | 
[V:2] d2d2d4 | 
[V:3] B4B4 | 
[V:4] D,2D,2G,,4 | 
[V:1] G4B4 | 
[V:2] d4d2e2 | 
[V:3] B2B2B4 | 
[V:4] G,,4G,4 | 
[V:1] A4G2A2- | 
[V:2] f4e2f2- | 
[V:3] c4B2c2- | 
[V:4] F,4G,2F,2- | 
[V:1] A2G4^F2 | 
[V:2] fec2d4 | 
[V:3] cBG2A4 | 
[V:4] F,2E,2D,4 | 
[V:1] G4z4 | 
[V:2] B4c4 | 
[V:3] G8 | 
[V:4] _E,8 | 
[V:1] A4A4 | 
[V:2] d2f4ed | 
[V:3] z8 | 
[V:4] D,6C,B,, | 
[V:1] A2A2B4- | 
[V:2] f4g2d2- | 
[V:3] z8 | 
[V:4] A,,4G,,4 | 
[V:1] B2AGF2B2- | 
[V:2] d2cBd4 | 
[V:3] z8 | 
[V:4] z8 | 
[V:1] B2A4G2 | 
[V:2] c2A2B4 | 
[V:3] z8 | 
[V:4] z8 | 
[V:1] A4z2F2- | 
[V:2] A4d4 | 
[V:3] z4A4 | 
[V:4] D,4D,2D,2- | 
[V:1] F2F2E2E2 | 
[V:2] d2d2e2c2 | 
[V:3] A2A4A2 | 
[V:4] D,2D,2C,2C,2 | 
[V:1] D4E2F2- | 
[V:2] d4c2A2 | 
[V:3] B4A4 | 
[V:4] B,,4C,2D,2- | 
[V:1] FGA2B4 | 
[V:2] d4B2_e2- | 
[V:3] F4G4 | 
[V:4] D,C,A,,D,G,,4 | 
[V:1] c2d3cA2 | 
[V:2] e2d3=ef2- | 
[V:3] A2B3AF2 | 
[V:4] C,2G,,4D,2 | 
[V:1] B2G2A2G2- | 
[V:2] f2e2f2c2- | 
[V:3] G4F2E2 | 
[V:4] B,,2C,2F,,2C,2 | 
[V:1] G2F4E2 | 
[V:2] c2B2c4 | 
[V:3] F4G4 | 
[V:4] D,4C,4 | 
[V:1] F8 | 
[V:2] A4B4 | 
[V:3] F4z4 | 
[V:4] D,8 | 
[V:1] z8 | 
[V:2] c4c4 | 
[V:3] A6B2 | 
[V:4] C,4F,,4 | 
[V:1] A6B2 | 
[V:2] A4z4 | 
[V:3] c4d4 | 
[V:4] z2F,4G,2 | 
[V:1] c2B4AG | 
[V:2] z4B2d2- | 
[V:3] c2d4cB | 
[V:4] A,2G,2D,4 | 
[V:1] F2GAB2A2- | 
[V:2] def3ef2 | 
[V:3] A2d4c2 | 
[V:4] D,4B,,2F,2 | 
[V:1] A2G4^F2 | 
[V:2] d2c2d4 | 
[V:3] B2G2A4 | 
[V:4] G,2E,2D,4 | 
[V:1] G4E4 | 
[V:2] B4c4 | 
[V:3] G4z4 | 
[V:4] G,,4z4 | 
[V:1] E4E2E2- | 
[V:2] c4c2c2- | 
[V:3] A4A4 | 
[V:4] C,4C,2C,2 | 
[V:1] E2E2F4 | 
[V:2] c2c2F4 | 
[V:3] A2A4A2 | 
[V:4] C,2C,2D,4 | 
[V:1] E4F4 | 
[V:2] c4d2A2 | 
[V:3] A4F4 | 
[V:4] A,,4z2D,2- | 
[V:1] D2G3FED | 
[V:2] B2d4cB | 
[V:3] B4B4 | 
[V:4] D,C,B,,A,,G,,4 | 
[V:1] C2F3GA2- | 
[V:2] c2A4d2- | 
[V:3] A4F4 | 
[V:4] A,,2D,3E,F,2 | 
[V:1] A2G4F2 | 
[V:2] d2c2d4 | 
[V:3] G4A4 | 
[V:4] E,4D,4 | 
[V:1] G2F4ED | 
[V:2] c2d2c3B | 
[V:3] G2A4GF | 
[V:4] E,2D,2A,,3B,, | 
[V:1] C2D4^C2 | 
[V:2] A2G2A4 | 
[V:3] E2D2E4 | 
[V:4] C,2B,,2A,,4 | 
[V:1] D4z4 | 
[V:2] F8 | 
[V:3] D8 | 
[V:4] z2A,3G,F,E, | 
[V:1] F8 | 
[V:2] F4A4 | 
[V:3] z8 | 
[V:4] D,8 | 
[V:1] F4F4 | 
[V:2] B6AG | 
[V:3] D8 | 
[V:4] B,,4B,,4 | 
[V:1] F8- | 
[V:2] A4D2d2- | 
[V:3] D4D4 | 
[V:4] F,8 | 
[V:1] F8- | 
[V:2] d2cBA4 | 
[V:3] D8- | 
[V:4] F,8 | 
[V:1] F8 | 
[V:2] B2AGF2B2- | 
[V:3] D8 | 
[V:4] B,,8 | 
[V:1] D8 | 
[V:2] BAGFG4 | 
[V:3] D8 | 
[V:4] B,,4B,,4 | 
[V:1] C8 | 
[V:2] A8 | 
[V:3] F8 | 
[V:4] A,,8 | 
[V:1] F4F4 | 
[V:2] A4A4 | 
[V:3] F4F4 | 
[V:4] D,8 | 
[V:1] D8 | 
[V:2] B8 | 
[V:3] G8 | 
[V:4] B,,6B,,2 | 
[V:1] G4G4- | 
[V:2] B4B4- | 
[V:3] z4G4 | 
[V:4] _E,6E,2 | 
[V:1] G2G2G4 | 
[V:2] B2B2c2_e2- | 
[V:3] G6G2 | 
[V:4] _E,4C,4- | 
[V:1] E4D4 | 
[V:2] e2dcd2B2 | 
[V:3] G4G4 | 
[V:4] C,4B,,4 | 
[V:1] C4F4- | 
[V:2] c4F4 | 
[V:3] A8 | 
[V:4] A,,4D,4- | 
[V:1] F2G2A4 | 
[V:2] f8 | 
[V:3] D6E2 | 
[V:4] D,2E,2F,4 | 
[V:1] A4B4 | 
[V:2] f3ed4 | 
[V:3] F4G4 | 
[V:4] D,3C,B,,4 | 
[V:1] c6A2- | 
[V:2] e4f4- | 
[V:3] A8 | 
[V:4] A,,2A,3G,F,2- | 
[V:1] A2GFE2F2- | 
[V:2] f4z4 | 
[V:3] z4A4 | 
[V:4] F,2E,D,C,2D,2- | 
[V:1] F2G3AB2 | 
[V:2] z8 | 
[V:3] B8 | 
[V:4] D,2E,3D,G,2- | 
[V:1] c4B4 | 
[V:2] z2f2d3e | 
[V:3] A4G4 | 
[V:4] G,2F,2G,4 | 
[V:1] A4G4 | 
[V:2] f4g2e2 | 
[V:3] c8 | 
[V:4] F,4E,4 | 
[V:1] d4c4 | 
[V:2] z2f3ef2 | 
[V:3] B4A4 | 
[V:4] D,4F,4 | 
[V:1] B6A2- | 
[V:2] B2d4c2 | 
[V:3] d8 | 
[V:4] G,4D,4 | 
[V:1] AGFED2G2- | 
[V:2] A4z2d2- | 
[V:3] c4B4 | 
[V:4] F,4G,4 | 
[V:1] G2^FEF4 | 
[V:2] d2cBA2d2 | 
[V:3] A8 | 
[V:4] D,8 | 
[V:1] G8 | 
[V:2] =B2c4=B2 | 
[V:3] G8 | 
[V:4] E,8 | 
[V:1] E8 | 
[V:2] c2e3dcB | 
[V:3] z4c4- | 
[V:4] C,8 | 
[V:1] z4A4 | 
[V:2] A8- | 
[V:3] c4c4 | 
[V:4] F,8- | 
[V:1] F4G4 | 
[V:2] A4G4 | 
[V:3] A4B4 | 
[V:4] F,4E,4 | 
[V:1] E3FG2A2- | 
[V:2] ABcde4 | 
[V:3] c8 | 
[V:4] C,8 | 
[V:1] AGFED2G2 | 
[V:2] f2d6 | 
[V:3] F4B4 | 
[V:4] D,4B,,4 | 
[V:1] E2F4G2- | 
[V:2] c2A2d2B2- | 
[V:3] A4B4 | 
[V:4] C,2D,2B,,2_E,2- | 
[V:1] GFEDC2F2- | 
[V:2] B4c4 | 
[V:3] G4A4 | 
[V:4] E,D,C,B,,A,,4 | 
[V:1] FGA2F2G2- | 
[V:2] d2f2d2e2- | 
[V:3] F3GA2B2- | 
[V:4] D,3E,F,2E,2- | 
[V:1] GFF4E2 | 
[V:2] edc6 | 
[V:3] B2A2G4 | 
[V:4] E,2F,2C,4 | 
[V:1] [M:3/1]F12- | 
[V:2] [M:3/1]A8d4 | 
[V:3] [M:3/1]F12 | 
[V:4] [M:3/1]D,12 | 
[V:1] F12 | 
[V:2] c4A4c4 | 
[V:3] z12 | 
[V:4] F,8F,4 | 
[V:1] z12 | 
[V:2] d4B4c4 | 
[V:3] F6G2A4 | 
[V:4] D,8C,4 | 
[V:1] F6G2A4 | 
[V:2] d8c4 | 
[V:3] B8A4 | 
[V:4] B,,2C,2D,2E,2F,4 | 
[V:1] B4G4A4 | 
[V:2] B4_e4c4 | 
[V:3] G4c4A4 | 
[V:4] G,4C,4F,4 | 
[V:1] F4E4A4- | 
[V:2] d4e4c4- | 
[V:3] B4c6B2 | 
[V:4] D,4C,4F,4- | 
[V:1] A4F4A4 | 
[V:2] c4d8 | 
[V:3] A2G2A4F4 | 
[V:4] F,4D,8 | 
[V:1] G6FED4 | 
[V:2] B4c4B4 | 
[V:3] G8B4- | 
[V:4] _E,6F,2G,4 | 
[V:1] G8^F4 | 
[V:2] d8d4 | 
[V:3] B4A8 | 
[V:4] G,4D,8 | 
[V:1] [M:4/1]G16- | 
[V:2] [M:4/1]B16- | 
[V:3] [M:4/1]G16 | 
[V:4] [M:4/1]_E,16 | 
[V:1] G8z8 | 
[V:2] B8c6d2 | 
[V:3] z8A8- | 
[V:4] G,8F,4A,4- | 
[V:1] z16 | 
[V:2] e4f8e4 | 
[V:3] A8B8 | 
[V:4] A,4F,4G,8 | 
[V:1] A16 | 
[V:2] f8a8 | 
[V:3] c8A8 | 
[V:4] F,16 | 
[V:1] B8c8- | 
[V:2] g8e8 | 
[V:3] d8c8 | 
[V:4] G,8C,8 | 
[V:1] c8d8 | 
[V:2] f8d8 | 
[V:3] A8B8 | 
[V:4] F,8B,,8 | 
[V:1] B8A8 | 
[V:2] _e8f8 | 
[V:3] G8F8 | 
[V:4] _E,4G,4D,8 | 
[V:1] B6A2G4F4 | 
[V:2] d8e4f4- | 
[V:3] B8c4d4- | 
[V:4] G,,2G,4F,2E,4D,4- | 
[V:1] B8G4A4 | 
[V:2] f4d4e4c4 | 
[V:3] d4B4c8 | 
[V:4] D,4G,4E,4F,4 | 
[V:1] F4A4B4c4 | 
[V:2] z4f4d4c4 | 
[V:3] d6c2B4A4 | 
[V:4] D,8G,,4A,,4 | 
[V:1] B4F4G4F4 | 
[V:2] d2B3cd2G4A4 | 
[V:3] G4d4c4d4 | 
[V:4] B,,8_E,4D,4 | 
[V:1] D4G8^F4 | 
[V:2] B4c4d8 | 
[V:3] G8A8 | 
[V:4] B,,4_E,4D,8 | 
[V:1] G16 |]  
[V:2] d16 |]  
[V:3] G16 |]  
[V:4] G,,16 |]  



